apps/64/appgrid.svg

<?xml version="1.0" encoding="UTF-8" standalone="no"?>
<!-- Created with Inkscape (http://www.inkscape.org/) -->

<svg
   xmlns:dc="http://purl.org/dc/elements/1.1/"
   xmlns:cc="http://creativecommons.org/ns#"
   xmlns:rdf="http://www.w3.org/1999/02/22-rdf-syntax-ns#"
   xmlns:svg="http://www.w3.org/2000/svg"
   xmlns="http://www.w3.org/2000/svg"
   xmlns:xlink="http://www.w3.org/1999/xlink"
   xmlns:sodipodi="http://sodipodi.sourceforge.net/DTD/sodipodi-0.dtd"
   xmlns:inkscape="http://www.inkscape.org/namespaces/inkscape"
   width="64"
   height="64"
   id="svg13094"
   version="1.1"
   inkscape:version="0.91+devel r"
   sodipodi:docname="appgrid.svg">
  <sodipodi:namedview
     id="base"
     pagecolor="#ffffff"
     bordercolor="#666666"
     borderopacity="1.0"
     inkscape:pageopacity="0"
     inkscape:pageshadow="2"
     inkscape:zoom="11.313709"
     inkscape:cx="28.894211"
     inkscape:cy="30.784687"
     inkscape:document-units="px"
     inkscape:current-layer="svg13094"
     showgrid="true"
     inkscape:snap-bbox="true"
     inkscape:bbox-paths="true"
     inkscape:bbox-nodes="true"
     inkscape:snap-bbox-edge-midpoints="true"
     inkscape:snap-bbox-midpoints="true"
     inkscape:object-paths="true"
     inkscape:snap-intersection-paths="true"
     inkscape:object-nodes="true"
     inkscape:snap-smooth-nodes="true"
     inkscape:snap-midpoints="true"
     inkscape:snap-object-midpoints="true"
     inkscape:snap-center="true"
     showguides="true"
     inkscape:guide-bbox="true"
     inkscape:window-width="1920"
     inkscape:window-height="1025"
     inkscape:window-x="-2"
     inkscape:window-y="32"
     inkscape:window-maximized="1"
     inkscape:snap-global="true"
     fit-margin-top="0"
     fit-margin-left="0"
     fit-margin-right="0"
     fit-margin-bottom="0"
     showborder="true"
     inkscape:showpageshadow="false"
     inkscape:snap-page="true">
    <inkscape:grid
       type="xygrid"
       id="grid3075"
       empspacing="5"
       visible="true"
       enabled="true"
       snapvisiblegridlinesonly="true"
       originx="1.6362304e-08px"
       originy="18px" />
  </sodipodi:namedview>
  <defs
     id="defs13096">
    <linearGradient
       x1="530.8714"
       y1="130.13429"
       x2="530.8714"
       y2="74.134285"
       id="linearGradient3152-1-6-9"
       xlink:href="#linearGradient3994-8"
       gradientUnits="userSpaceOnUse"
       gradientTransform="translate(-497.87137,-66.134286)" />
    <linearGradient
       x1="48.917568"
       y1="110.2137"
       x2="32.669781"
       y2="88"
       id="linearGradient3994-8"
       gradientUnits="userSpaceOnUse"
       gradientTransform="translate(0,-64)">
      <stop
         id="stop3996-2"
         style="stop-color:#f18044;stop-opacity:1"
         offset="0" />
      <stop
         id="stop3998-2"
         style="stop-color:#f18044;stop-opacity:1"
         offset="0.32142866" />
      <stop
         id="stop4000-6"
         style="stop-color:#db6d39;stop-opacity:1"
         offset="0.33928579" />
      <stop
         id="stop4002-3"
         style="stop-color:#db6d39;stop-opacity:1"
         offset="1" />
    </linearGradient>
  </defs>
  <metadata
     id="metadata13099">
    <rdf:RDF>
      <cc:Work
         rdf:about="">
        <dc:format>image/svg+xml</dc:format>
        <dc:type
           rdf:resource="http://purl.org/dc/dcmitype/StillImage" />
        <dc:title></dc:title>
      </cc:Work>
    </rdf:RDF>
  </metadata>
  <path
     style="color:#000000;display:inline;overflow:visible;visibility:visible;opacity:1;fill:url(#linearGradient3152-1-6-9);fill-opacity:1;fill-rule:nonzero;stroke:none;stroke-width:1;stroke-linecap:butt;stroke-linejoin:miter;stroke-miterlimit:4;stroke-dasharray:none;stroke-dashoffset:0;stroke-opacity:1;marker:none;enable-background:accumulate"
     d="m 0,8 0,38 0,16 2,2 30,0 30,0 2,-2 0,-16 0,-38 -32,0 z"
     id="path4303"
     inkscape:connector-curvature="0"
     sodipodi:nodetypes="ccccccccccc" />
  <path
     style="color:#000000;fill:#c15624;fill-opacity:1;fill-rule:nonzero;stroke:none;marker:none;visibility:visible;display:inline;overflow:visible;enable-background:accumulate"
     d="M 2,0 0,1 0,8 32,8 64,8 64,1 62,0 32,0 z"
     id="path6502"
     inkscape:connector-curvature="0"
     sodipodi:nodetypes="ccccccccc" />
  <path
     style="fill:#ffa96f;fill-opacity:1;fill-rule:nonzero"
     d="M 0,7 0,10 2,8 32,8 62,8 64,7 32,7 z"
     id="path4298"
     inkscape:connector-curvature="0"
     sodipodi:nodetypes="cccccccc" />
  <path
     style="fill:#ffa96f;fill-opacity:1;fill-rule:nonzero"
     d="M 2,0 0,1 32,1 64,1 62,0 32,0 z"
     id="path4444"
     inkscape:connector-curvature="0"
     sodipodi:nodetypes="ccccccc" />
  <g
     id="g4444">
    <path
       inkscape:connector-curvature="0"
       id="path4442"
       style="color:#000000;display:inline;overflow:visible;visibility:visible;opacity:1;fill:none;fill-opacity:1;fill-rule:nonzero;stroke:#ffffff;stroke-width:1;stroke-linecap:butt;stroke-linejoin:miter;stroke-miterlimit:4;stroke-dasharray:none;stroke-dashoffset:0;stroke-opacity:0.16905189;marker:none;enable-background:accumulate"
       d="M 2.0363636e-6,15.5 63.999998,15.5 M 2.0363636e-6,25.5 63.999998,25.5 M 2.0363636e-6,35.5 63.999998,35.5 M 2.0363636e-6,45.5 63.999998,45.5 M 2.0363636e-6,55.5 63.999998,55.5 M 56.5,6.9999998 l 0,56.9999982 m -10,-56.9999982 0,56.9999982 m -10,-56.9999982 0,56.9999982 m -10,-56.9999982 0,56.9999982 m -10,-56.9999982 0,56.9999982 M 6.5,6.9999998 6.5,63.999998" />
  </g>
  <g
     id="g3043"
     inkscape:export-filename="folder.png"
     inkscape:export-xdpi="90"
     inkscape:export-ydpi="90"
     transform="translate(-0.62500009,0.082283)" />
  <path
     sodipodi:nodetypes="cccccccccc"
     inkscape:connector-curvature="0"
     id="path4178"
     d="M 0,1 0,46 0,62 1,63 1,46 1,9 2,8 1,7.46875 1,1 z"
     style="fill:#ffffff;fill-opacity:0.26413429;fill-rule:nonzero" />
  <path
     d="M 64,10 62,8 64,7 z"
     id="path3028"
     style="fill:#1f0700;fill-opacity:0.13759861"
     inkscape:connector-curvature="0"
     sodipodi:nodetypes="cccc" />
  <path
     style="fill:#ffc178;fill-opacity:1;fill-rule:nonzero;opacity:1;stroke-width:1;stroke-linecap:butt;stroke-linejoin:miter;stroke-miterlimit:4;stroke-dasharray:none;stroke-dashoffset:0;stroke-opacity:1"
     d="M 0,1 1.6362304e-8,10 1,9 2,8 1,7.46875 1,1 z"
     id="path3864"
     inkscape:connector-curvature="0"
     sodipodi:nodetypes="ccccccc" />
  <g
     id="scalable"
     transform="matrix(1.0385892,0,0,1.0385892,1214.7222,1878.8121)"
     inkscape:label="#g3701"
     style="fill:#ffffff" />
  <g
     id="g4277">
    <path
       transform="translate(-1.7180419e-7,0.99999979)"
       sodipodi:type="arc"
       style="opacity:1;color:#000000;fill:#7f3a19;fill-opacity:1;fill-rule:nonzero;stroke:none;stroke-width:1;marker:none;visibility:visible;display:inline;overflow:visible;enable-background:accumulate"
       id="path4188"
       sodipodi:cx="21"
       sodipodi:cy="14"
       sodipodi:rx="2"
       sodipodi:ry="2"
       d="m 23,14 a 2,2 0 1 1 -4,0 2,2 0 1 1 4,0 z" />
    <path
       transform="translate(21,0.99999979)"
       d="m 23,14 a 2,2 0 1 1 -4,0 2,2 0 1 1 4,0 z"
       sodipodi:ry="2"
       sodipodi:rx="2"
       sodipodi:cy="14"
       sodipodi:cx="21"
       id="path4186"
       style="opacity:1;color:#000000;fill:#7f3a19;fill-opacity:1;fill-rule:nonzero;stroke:none;stroke-width:1;marker:none;visibility:visible;display:inline;overflow:visible;enable-background:accumulate"
       sodipodi:type="arc" />
    <path
       inkscape:connector-curvature="0"
       id="path4190"
       d="m 20.78125,14 a 1.0001,1.0001 0 0 0 -0.5,1.71875 c 0,0 2.306989,2.293783 5.4375,4.59375 C 28.849261,22.612467 32.788462,25 36.5,25 38.355769,25 39.819646,24.302471 40.8125,23.28125 41.805354,22.260029 42.347523,20.984907 42.65625,19.75 43.273704,17.280186 43,14.875 43,14.875 a 1.0077822,1.0077822 0 1 0 -2,0.25 c 0,0 0.226296,2.094814 -0.28125,4.125 -0.253773,1.015093 -0.695979,1.989971 -1.34375,2.65625 C 38.727229,22.572529 37.894231,23 36.5,23 c -2.788462,0 -6.599261,-2.112467 -9.59375,-4.3125 -2.994489,-2.200033 -5.1875,-4.40625 -5.1875,-4.40625 A 1.0001,1.0001 0 0 0 20.78125,14 z"
       style="font-size:medium;font-style:normal;font-variant:normal;font-weight:normal;font-stretch:normal;text-indent:0;text-align:start;text-decoration:none;line-height:normal;letter-spacing:normal;word-spacing:normal;text-transform:none;direction:ltr;block-progression:tb;writing-mode:lr-tb;text-anchor:start;baseline-shift:baseline;color:#000000;fill:#441600;fill-opacity:0.15742397;stroke:none;stroke-width:2;marker:none;visibility:visible;display:inline;overflow:visible;enable-background:accumulate;font-family:Sans;-inkscape-font-specification:Sans" />
    <path
       style="fill:none;stroke:#f2f2f2;stroke-width:2;stroke-linecap:round;stroke-linejoin:round;stroke-miterlimit:4;stroke-opacity:1;stroke-dasharray:none"
       d="m 21,15 c 0,0 4,4 10.5,4 C 38,19 42,15 42,15"
       id="path4237"
       inkscape:connector-curvature="0"
       sodipodi:nodetypes="czc" />
  </g>
  <path
     style="color:#000000;font-style:normal;font-variant:normal;font-weight:normal;font-stretch:normal;font-size:medium;line-height:normal;font-family:sans-serif;text-indent:0;text-align:start;text-decoration:none;text-decoration-line:none;text-decoration-style:solid;text-decoration-color:#000000;letter-spacing:normal;word-spacing:normal;text-transform:none;direction:ltr;block-progression:tb;writing-mode:lr-tb;baseline-shift:baseline;text-anchor:start;white-space:normal;shape-padding:0;clip-rule:nonzero;display:inline;overflow:visible;visibility:visible;opacity:1;isolation:auto;mix-blend-mode:normal;color-interpolation:sRGB;color-interpolation-filters:linearRGB;solid-color:#000000;solid-opacity:1;fill:#f2f2f2;fill-opacity:1;fill-rule:nonzero;stroke:none;stroke-width:1;stroke-linecap:butt;stroke-linejoin:miter;stroke-miterlimit:4;stroke-dasharray:none;stroke-dashoffset:0;stroke-opacity:1;marker:none;color-rendering:auto;image-rendering:auto;shape-rendering:auto;text-rendering:auto;enable-background:accumulate"
     d="M 32 25.005859 C 27.903149 25.005859 23.805553 26.56554 20.685547 29.685547 C 14.445534 35.92556 14.445534 46.07444 20.685547 52.314453 C 26.92556 58.554466 37.07444 58.554466 43.314453 52.314453 C 49.554466 46.07444 49.554466 35.92556 43.314453 29.685547 C 40.194447 26.56554 36.096851 25.005859 32 25.005859 z M 43.314453 52.314453 L 42.607422 53.021484 L 53.585938 64 L 56.414062 64 L 44.021484 51.607422 L 43.314453 52.314453 z M 32 26.994141 C 35.580819 26.994141 39.162533 28.361752 41.900391 31.099609 C 47.376106 36.575324 47.376106 45.424676 41.900391 50.900391 C 36.424676 56.376106 27.575324 56.376106 22.099609 50.900391 C 16.623894 45.424676 16.623894 36.575324 22.099609 31.099609 C 24.837467 28.361752 28.419181 26.994141 32 26.994141 z M 32 31.763672 L 24.105469 47.552734 L 25.894531 48.447266 L 27.617188 45 L 36.382812 45 L 38.105469 48.447266 L 39.894531 47.552734 L 32 31.763672 z M 32 36.236328 L 35.382812 43 L 28.617188 43 L 32 36.236328 z "
     id="path4197" />
  <g
     id="g4262">
    <path
       sodipodi:nodetypes="sccccssssss"
       inkscape:connector-curvature="0"
       id="rect4228-2"
       d="m 58.558391,17.388751 c -1.933964,-0.51664 -7.162182,3.511411 -7.162182,3.511411 L 50,32 61,36 62,23 c 0,0 -1.507646,-5.094609 -3.441609,-5.611249 z m -0.58298,2.169142 c 1.201612,0.320999 1.914701,1.552376 1.59273,2.75036 -0.321971,1.197984 -1.557078,1.908921 -2.758689,1.587922 -1.201612,-0.320998 -1.914703,-1.552377 -1.592732,-2.750361 0.321971,-1.197984 1.557079,-1.90892 2.758691,-1.587921 z"
       style="color:#000000;display:inline;overflow:visible;visibility:visible;fill:#441600;fill-opacity:0.15742397;fill-rule:nonzero;stroke:none;stroke-width:2;marker:none;enable-background:accumulate" />
    <path
       style="color:#000000;display:inline;overflow:visible;visibility:visible;fill:#f2c84d;fill-opacity:1;fill-rule:nonzero;stroke:none;stroke-width:1;marker:none;enable-background:accumulate"
       d="m 56.969395,15.502314 c -1.609876,-0.431365 -5.961963,2.93183 -5.961963,2.93183 l -3.073476,11.470369 9.659258,2.588191 3.073477,-11.47037 c 0,0 -2.087421,-5.088655 -3.697296,-5.52002 z m -0.485286,1.811111 c 1.000249,0.268016 1.593841,1.296147 1.325825,2.296396 -0.268016,1.000249 -1.296147,1.593841 -2.296396,1.325825 -1.000249,-0.268015 -1.593842,-1.296147 -1.325826,-2.296396 0.268016,-1.000249 1.296148,-1.593841 2.296397,-1.325825 z"
       id="path4239-2"
       inkscape:connector-curvature="0"
       sodipodi:nodetypes="sccccssssss" />
    <path
       sodipodi:nodetypes="cc"
       inkscape:connector-curvature="0"
       id="path4198-9"
       d="M 56,19 56,7.0000005"
       style="fill:none;stroke:#7f3a19;stroke-width:2;stroke-linecap:round;stroke-linejoin:round;stroke-miterlimit:4;stroke-dasharray:none;stroke-opacity:1" />
    <path
       sodipodi:nodetypes="cccccccc"
       inkscape:connector-curvature="0"
       id="rect4269-7-5"
       d="m 54.112343,21.775255 1.931851,0.517638 -1.035276,3.863703 1.931852,0.517638 -3.674235,2.12132 -2.12132,-3.674234 1.931852,0.517638 z"
       style="color:#000000;display:inline;overflow:visible;visibility:visible;fill:#b37821;fill-opacity:1;fill-rule:nonzero;stroke:none;stroke-width:2;marker:none;enable-background:accumulate" />
  </g>
  <path
     inkscape:connector-curvature="0"
     style="fill:#f09159;fill-opacity:1"
     d="m 63,1 0,6.5 -1,0.5 2,2 0,-2 0,-1 0,-6 -1,0 z"
     id="path3028-3" />
</svg>

<?xml version="1.0" encoding="UTF-8"?>
<!-- Created with Inkscape (http://www.inkscape.org/) -->
<svg width="64" height="64" version="1.1" xmlns="http://www.w3.org/2000/svg" xmlns:cc="http://creativecommons.org/ns#" xmlns:dc="http://purl.org/dc/elements/1.1/" xmlns:rdf="http://www.w3.org/1999/02/22-rdf-syntax-ns#" xmlns:xlink="http://www.w3.org/1999/xlink">
	<defs>
		<radialGradient id="a" cx="32" cy="58.5" r="32" gradientTransform="matrix(1.8231 4.9721e-8 -3.75e-8 1.375 -26.34 -35.438)" gradientUnits="userSpaceOnUse">
			<stop stop-color="#f40761" stop-opacity=".35828" offset="0"/>
			<stop stop-color="#f40761" stop-opacity="0" offset="1"/>
		</radialGradient>
		<linearGradient id="b" x1="32" x2="32" y1="7" y2="1" gradientUnits="userSpaceOnUse">
			<stop stop-color="#e71b0d" offset="0"/>
			<stop stop-color="#fb4378" offset="1"/>
		</linearGradient>
	</defs>
	<metadata>
		<rdf:RDF>
			<cc:Work rdf:about="">
				<dc:format>image/svg+xml</dc:format>
				<dc:type rdf:resource="http://purl.org/dc/dcmitype/StillImage"/>
				<dc:title/>
			</cc:Work>
		</rdf:RDF>
	</metadata>
	<path d="m0 8v38 16l2 2h30 30l2-2v-16-38h-32z" color="#000000" fill="#fd652d"/>
	<path d="m0 8v37h64v-37h-32z" color="#000000" fill="url(#a)"/>
	<path d="m2 0-2 1v7h32 32v-7l-2-1h-30z" color="#000000" fill="url(#b)"/>
	<path d="m0 7v3l2-2h30 30l2-1h-32z" fill="#ffde68"/>
	<path d="m2 0-2 1h32 32l-2-1h-30z" fill="#ffde68"/>
	<g>
		<path d="m2.0364e-6 15.5h64m-64 10h64m-64 10h64m-64 10h64m-64 10h64m-7.5-48.5v57m-10-57v57m-10-57v57m-10-57v57m-10-57v57m-10-57v57" color="#000000" fill="none" stroke="#ffffff" stroke-opacity=".16905"/>
	</g>
	<path d="m0 1v45 16l1 1v-17-37l1-1-1-0.53125v-6.4688z" fill="#ffffff" fill-opacity=".26413"/>
	<path d="m64 10-2-2 2-1z" fill="#f65e33" fill-opacity=".9981"/>
	<path d="m0 1 1.6362e-8 9 2-2-1-0.53125v-6.4688z" fill="#ffde68"/>
	<g>
		<path transform="translate(-1.718e-7 1)" d="m23 14a2 2 0 1 1-4 0 2 2 0 1 1 4 0z" color="#000000" fill="#7f3a19"/>
		<path transform="translate(21 1)" d="m23 14a2 2 0 1 1-4 0 2 2 0 1 1 4 0z" color="#000000" fill="#7f3a19"/>
		<path d="m20.781 14a1.0001 1.0001 0 0 0-0.5 1.7188s2.307 2.2938 5.4375 4.5938 7.0697 4.6875 10.781 4.6875c1.8558 0 3.3196-0.69753 4.3125-1.7188s1.535-2.2963 1.8438-3.5312c0.61745-2.4698 0.34375-4.875 0.34375-4.875a1.0078 1.0078 0 1 0-2 0.25s0.2263 2.0948-0.28125 4.125c-0.25377 1.0151-0.69598 1.99-1.3438 2.6562s-1.4808 1.0938-2.875 1.0938c-2.7885 0-6.5993-2.1125-9.5938-4.3125s-5.1875-4.4062-5.1875-4.4062a1.0001 1.0001 0 0 0-0.9375-0.28125z" color="#000000" fill="#441600" fill-opacity=".15742" style="block-progression:tb;text-indent:0;text-transform:none"/>
		<path d="m21 15s4 4 10.5 4 10.5-4 10.5-4" fill="none" stroke="#f2f2f2" stroke-linecap="round" stroke-linejoin="round" stroke-width="2"/>
	</g>
	<path d="m32 25.006c-4.0969 0-8.1944 1.5597-11.314 4.6797-6.24 6.24-6.24 16.389 0 22.629s16.389 6.24 22.629 0 6.24-16.389 0-22.629c-3.12-3.12-7.2176-4.6797-11.314-4.6797zm11.314 27.309-0.70703 0.70703 10.979 10.979h2.8281l-12.393-12.393-0.70703 0.70703zm-11.314-25.32c3.5808 0 7.1625 1.3676 9.9004 4.1055 5.4757 5.4757 5.4757 14.325 0 19.801s-14.325 5.4757-19.801 0-5.4757-14.325 0-19.801c2.7379-2.7379 6.3196-4.1055 9.9004-4.1055zm0 4.7695-7.8945 15.789 1.7891 0.89453 1.7227-3.4473h8.7656l1.7227 3.4473 1.7891-0.89453-7.8945-15.789zm0 4.4727 3.3828 6.7637h-6.7656l3.3828-6.7637z" color="#000000" color-rendering="auto" fill="#f2f2f2" image-rendering="auto" shape-rendering="auto" solid-color="#000000" style="block-progression:tb;isolation:auto;mix-blend-mode:normal;shape-padding:0;text-decoration-color:#000000;text-decoration-line:none;text-decoration-style:solid;text-indent:0;text-transform:none;white-space:normal"/>
	<g>
		<path d="m58.558 17.389c-1.934-0.51664-7.1622 3.5114-7.1622 3.5114l-1.3962 11.1 11 4 1-13s-1.5076-5.0946-3.4416-5.6112zm-0.58298 2.1691c1.2016 0.321 1.9147 1.5524 1.5927 2.7504s-1.5571 1.9089-2.7587 1.5879c-1.2016-0.321-1.9147-1.5524-1.5927-2.7504s1.5571-1.9089 2.7587-1.5879z" color="#000000" fill="#441600" fill-opacity=".15742"/>
		<path d="m56.969 15.502c-1.6099-0.43136-5.962 2.9318-5.962 2.9318l-3.0735 11.47 9.6593 2.5882 3.0735-11.47s-2.0874-5.0887-3.6973-5.52zm-0.48529 1.8111c1.0002 0.26802 1.5938 1.2961 1.3258 2.2964s-1.2961 1.5938-2.2964 1.3258c-1.0002-0.26802-1.5938-1.2961-1.3258-2.2964s1.2961-1.5938 2.2964-1.3258z" color="#000000" fill="#f2c84d"/>
		<path d="m56 19v-12" fill="none" stroke="#7f3a19" stroke-linecap="round" stroke-linejoin="round" stroke-width="2"/>
		<path d="m54.112 21.775 1.9319 0.51764-1.0353 3.8637 1.9319 0.51764-3.6742 2.1213-2.1213-3.6742 1.9319 0.51764z" color="#000000" fill="#b37821"/>
	</g>
	<path d="m63 1v6.5l-1 0.5 2 2v-2-1-6h-1z" fill="#f88a3e"/>
</svg>
